src/ui/images/mark/articulation/downmordent.svg

<?xml version="1.0" encoding="UTF-8" standalone="no"?>
<svg
   xmlns:dc="http://purl.org/dc/elements/1.1/"
   xmlns:cc="http://web.resource.org/cc/"
   xmlns:rdf="http://www.w3.org/1999/02/22-rdf-syntax-ns#"
   xmlns:svg="http://www.w3.org/2000/svg"
   xmlns="http://www.w3.org/2000/svg"
   xmlns:xlink="http://www.w3.org/1999/xlink"
   xmlns:sodipodi="http://sodipodi.sourceforge.net/DTD/sodipodi-0.dtd"
   xmlns:inkscape="http://www.inkscape.org/namespaces/inkscape"
   viewBox="0 -200 1000 1000"
   id="svg27169"
   sodipodi:version="0.32"
   inkscape:version="0.45.1"
   width="128"
   height="128"
   sodipodi:docname="downmordent.svg"
   sodipodi:docbase="/home/matevz/canorus/trunk/src/ui/images/mark/articulation"
   inkscape:export-filename="/home/matevz/apps/canorus/branches/matevz/src/fonts/n2.png"
   inkscape:export-xdpi="120.95"
   inkscape:export-ydpi="120.95"
   inkscape:output_extension="org.inkscape.output.svg.inkscape"
   version="1.0">
  <metadata
     id="metadata27178">
    <rdf:RDF>
      <cc:Work
         rdf:about="">
        <dc:format>image/svg+xml</dc:format>
        <dc:type
           rdf:resource="http://purl.org/dc/dcmitype/StillImage" />
      </cc:Work>
    </rdf:RDF>
  </metadata>
  <defs
     id="defs27176">
    <linearGradient
       id="linearGradient33317">
      <stop
         style="stop-color:#000000;stop-opacity:1;"
         offset="0"
         id="stop33319" />
      <stop
         style="stop-color:#646464;stop-opacity:1;"
         offset="1"
         id="stop33321" />
    </linearGradient>
    <linearGradient
       inkscape:collect="always"
       xlink:href="#linearGradient33317"
       id="linearGradient33323"
       x1="49.270287"
       y1="920.35596"
       x2="110.55885"
       y2="920.35596"
       gradientUnits="userSpaceOnUse" />
    <linearGradient
       inkscape:collect="always"
       xlink:href="#linearGradient33317"
       id="linearGradient8122"
       gradientUnits="userSpaceOnUse"
       x1="49.270287"
       y1="920.35596"
       x2="110.55885"
       y2="920.35596" />
    <linearGradient
       inkscape:collect="always"
       xlink:href="#linearGradient33317"
       id="linearGradient19732"
       gradientUnits="userSpaceOnUse"
       x1="49.270287"
       y1="920.35596"
       x2="110.55885"
       y2="920.35596"
       gradientTransform="matrix(5.6766826,0,0,5.6766826,-206.90519,-4941.8885)" />
    <linearGradient
       inkscape:collect="always"
       xlink:href="#linearGradient33317"
       id="linearGradient20714"
       x1="483.75861"
       y1="336.54208"
       x2="900.97968"
       y2="336.54208"
       gradientUnits="userSpaceOnUse"
       gradientTransform="matrix(0.7657372,0,0,0.7657372,175.82664,67.12053)" />
    <linearGradient
       inkscape:collect="always"
       xlink:href="#linearGradient33317"
       id="linearGradient21697"
       gradientUnits="userSpaceOnUse"
       gradientTransform="matrix(0.7657372,0,0,0.7657372,175.82664,67.12053)"
       x1="483.75861"
       y1="336.54208"
       x2="900.97968"
       y2="336.54208" />
    <linearGradient
       inkscape:collect="always"
       xlink:href="#linearGradient33317"
       id="linearGradient21703"
       gradientUnits="userSpaceOnUse"
       gradientTransform="matrix(5.6766826,0,0,5.6766826,-206.90519,-4941.8885)"
       x1="49.270287"
       y1="920.35596"
       x2="110.55885"
       y2="920.35596" />
    <linearGradient
       inkscape:collect="always"
       xlink:href="#linearGradient33317"
       id="linearGradient21707"
       gradientUnits="userSpaceOnUse"
       gradientTransform="matrix(0.5805313,0,0,0.5805313,-202.92606,52.853836)"
       x1="483.75861"
       y1="336.54208"
       x2="900.97968"
       y2="336.54208" />
    <linearGradient
       inkscape:collect="always"
       xlink:href="#linearGradient33317"
       id="linearGradient23661"
       gradientUnits="userSpaceOnUse"
       gradientTransform="matrix(0.5805313,0,0,0.5805313,-202.92606,52.853836)"
       x1="483.75861"
       y1="336.54208"
       x2="900.97968"
       y2="336.54208" />
    <linearGradient
       inkscape:collect="always"
       xlink:href="#linearGradient33317"
       id="linearGradient2238"
       gradientUnits="userSpaceOnUse"
       gradientTransform="matrix(0.5805313,0,0,0.5805313,-216.73483,128.73884)"
       x1="483.75861"
       y1="336.54208"
       x2="2008.1578"
       y2="336.54208" />
    <linearGradient
       inkscape:collect="always"
       xlink:href="#linearGradient33317"
       id="linearGradient2248"
       gradientUnits="userSpaceOnUse"
       gradientTransform="matrix(0.5805313,0,0,0.5805313,-216.73483,128.73884)"
       x1="483.75861"
       y1="336.54208"
       x2="2008.1578"
       y2="336.54208" />
    <linearGradient
       inkscape:collect="always"
       xlink:href="#linearGradient33317"
       id="linearGradient3229"
       x1="-8.1343279"
       y1="250"
       x2="799"
       y2="250"
       gradientUnits="userSpaceOnUse" />
    <linearGradient
       inkscape:collect="always"
       xlink:href="#linearGradient33317"
       id="linearGradient4216"
       gradientUnits="userSpaceOnUse"
       x1="-8.1343279"
       y1="250"
       x2="799"
       y2="250" />
    <linearGradient
       inkscape:collect="always"
       xlink:href="#linearGradient33317"
       id="linearGradient5390"
       x1="-273"
       y1="0.31521606"
       x2="273"
       y2="0.31521606"
       gradientUnits="userSpaceOnUse" />
    <linearGradient
       inkscape:collect="always"
       xlink:href="#linearGradient33317"
       id="linearGradient6377"
       gradientUnits="userSpaceOnUse"
       x1="-273"
       y1="0.31521606"
       x2="273"
       y2="0.31521606" />
    <linearGradient
       inkscape:collect="always"
       xlink:href="#linearGradient33317"
       id="linearGradient7410"
       x1="37.855946"
       y1="19.808781"
       x2="742.65802"
       y2="19.808781"
       gradientUnits="userSpaceOnUse" />
    <linearGradient
       inkscape:collect="always"
       xlink:href="#linearGradient33317"
       id="linearGradient8393"
       gradientUnits="userSpaceOnUse"
       x1="37.855946"
       y1="19.808781"
       x2="742.65802"
       y2="19.808781" />
    <linearGradient
       inkscape:collect="always"
       xlink:href="#linearGradient33317"
       id="linearGradient2212"
       gradientUnits="userSpaceOnUse"
       x1="37.855946"
       y1="19.808781"
       x2="742.65802"
       y2="19.808781" />
    <linearGradient
       inkscape:collect="always"
       xlink:href="#linearGradient33317"
       id="linearGradient3231"
       x1="-225.0625"
       y1="0"
       x2="225"
       y2="0"
       gradientUnits="userSpaceOnUse" />
    <linearGradient
       inkscape:collect="always"
       xlink:href="#linearGradient33317"
       id="linearGradient4218"
       gradientUnits="userSpaceOnUse"
       x1="-225.0625"
       y1="0"
       x2="225"
       y2="0" />
    <linearGradient
       inkscape:collect="always"
       xlink:href="#linearGradient33317"
       id="linearGradient5286"
       x1="-188"
       y1="166.5"
       x2="188"
       y2="166.5"
       gradientUnits="userSpaceOnUse" />
    <linearGradient
       inkscape:collect="always"
       xlink:href="#linearGradient33317"
       id="linearGradient6273"
       gradientUnits="userSpaceOnUse"
       x1="-188"
       y1="166.5"
       x2="188"
       y2="166.5" />
    <linearGradient
       inkscape:collect="always"
       xlink:href="#linearGradient33317"
       id="linearGradient7325"
       x1="-395.44577"
       y1="35.388885"
       x2="357"
       y2="35.388885"
       gradientUnits="userSpaceOnUse" />
    <linearGradient
       inkscape:collect="always"
       xlink:href="#linearGradient33317"
       id="linearGradient8310"
       gradientUnits="userSpaceOnUse"
       x1="-395.44577"
       y1="35.388885"
       x2="357"
       y2="35.388885" />
    <linearGradient
       inkscape:collect="always"
       xlink:href="#linearGradient33317"
       id="linearGradient8312"
       gradientUnits="userSpaceOnUse"
       x1="-395.44577"
       y1="35.388885"
       x2="357"
       y2="35.388885" />
  </defs>
  <sodipodi:namedview
     inkscape:window-height="979"
     inkscape:window-width="1400"
     inkscape:pageshadow="2"
     inkscape:pageopacity="0.0"
     borderopacity="1.0"
     bordercolor="#666666"
     pagecolor="#ffffff"
     id="base"
     inkscape:zoom="2.8284271"
     inkscape:cx="80.009538"
     inkscape:cy="43.897201"
     inkscape:window-x="0"
     inkscape:window-y="0"
     inkscape:current-layer="svg27169"
     width="128px"
     height="128px" />
  <g
     id="g8304"
     transform="matrix(0.6992888,0,0,0.6992888,675.76925,288.15794)">
    <g
       style="fill:#000000;fill-opacity:0.39215686"
       id="g7327"
       transform="matrix(1.6137555,0,0,-1.6137555,-212.0469,89.235219)">
      <path
         style="fill:#000000;fill-opacity:0.39215686"
         id="path7329"
         d="M -345,235 C -338.33333,238.33333 -331.66667,238.66667 -325,236 C -321,233.33333 -317.66667,229.66667 -315,225 C -313.66667,222.33333 -313,219 -313,215 C -313.66667,210.33333 -317.33333,202.66667 -324,192 C -354.66667,139.33333 -360.33333,84.666667 -341,28 C -338.33333,20 -336.33333,14.666667 -335,12 L -333,8 L -296,64 C -270.66667,101.33333 -256.33333,120.66667 -253,122 C -247,125.33333 -240.66667,125.66667 -234,123 C -230,119.66667 -211.66667,99 -179,61 L -130,1 L -90,60 C -63.333333,100 -48.333333,120.66667 -45,122 C -39,125.33333 -32.666667,125.66667 -26,123 C -22,119.66667 -3.6666667,99 29,61 L 78,1 L 80,4 C 81.333333,5.3333333 82,30 82,78 C 82,125.33333 82.666667,150.33333 84,153 C 86.666667,158.33333 90.666667,162.33333 96,165 C 101.33333,167.66667 107,167.66667 113,165 C 119,162.33333 122.66667,159 124,155 C 126,151 127,137 127,113 L 128,75 L 143,97 C 153,112.33333 159.66667,120.66667 163,122 C 169,125.33333 175.33333,125.66667 182,123 C 186,119.66667 204.33333,99 237,61 L 286,1 L 296,16 C 310.66667,39.333333 320.33333,52 325,54 C 331.66667,58 338,58.333333 344,55 C 348.66667,52.333333 352.33333,49 355,45 C 357.66667,38.333333 357.66667,32 355,26 L 305,-49 L 259,-119 L 253,-122 C 247,-125.33333 240.66667,-125.66667 234,-123 C 230,-119.66667 212,-99 180,-61 L 137.5,-11.5 C 137.5,-11.5 134.33333,-8.6666667 128,-3 C 121.66667,2.6666667 121.33333,-21.666667 127,-76 C 127,-124.66667 126.33333,-150.33333 125,-153 C 122.33333,-158.33333 118.66667,-162.33333 114,-165 C 107.33333,-167.66667 101.33333,-167.66667 96,-165 C 90.666667,-162.33333 86.666667,-158.33333 84,-153 C 82.666667,-150.33333 82,-136.33333 82,-111 L 82,-73 L 66,-96 C 55.333333,-112 48.333333,-120.66667 45,-122 C 39,-125.33333 32.666667,-125.66667 26,-123 C 22,-119.66667 3.6666667,-99 -29,-61 L -78,-1 L -118,-60 C -144.66667,-100 -159.66667,-120.66667 -163,-122 C -169,-125.33333 -175.33333,-125.66667 -182,-123 C -186,-119.66667 -204.33333,-99 -237,-61 L -286,-1 L -296,-16 C -310.66667,-39.333333 -320.33333,-52 -325,-54 C -331.66667,-58 -338,-58.333333 -344,-55 C -348,-53 -353,-47.333333 -359,-38 C -395.66667,22.666667 -404.66667,88 -386,158 C -376.66667,186.66667 -366.66667,208.66667 -356,224 C -351.33333,230 -347.66667,233.66667 -345,235 z " />
    </g>
    <g
       style="fill:url(#linearGradient8310);fill-opacity:1"
       id="g6337"
       transform="matrix(1.6137551,0,0,-1.6137551,-228.61977,58.851638)">
      <path
         style="fill:url(#linearGradient8312);fill-opacity:1"
         id="path6339"
         d="M -345,235 C -338.33333,238.33333 -331.66667,238.66667 -325,236 C -321,233.33333 -317.66667,229.66667 -315,225 C -313.66667,222.33333 -313,219 -313,215 C -313.66667,210.33333 -317.33333,202.66667 -324,192 C -354.66667,139.33333 -360.33333,84.666667 -341,28 C -338.33333,20 -336.33333,14.666667 -335,12 L -333,8 L -296,64 C -270.66667,101.33333 -256.33333,120.66667 -253,122 C -247,125.33333 -240.66667,125.66667 -234,123 C -230,119.66667 -211.66667,99 -179,61 L -130,1 L -90,60 C -63.333333,100 -48.333333,120.66667 -45,122 C -39,125.33333 -32.666667,125.66667 -26,123 C -22,119.66667 -3.6666667,99 29,61 L 78,1 L 80,4 C 81.333333,5.3333333 82,30 82,78 C 82,125.33333 82.666667,150.33333 84,153 C 86.666667,158.33333 90.666667,162.33333 96,165 C 101.33333,167.66667 107,167.66667 113,165 C 119,162.33333 122.66667,159 124,155 C 126,151 127,137 127,113 L 128,75 L 143,97 C 153,112.33333 159.66667,120.66667 163,122 C 169,125.33333 175.33333,125.66667 182,123 C 186,119.66667 204.33333,99 237,61 L 286,1 L 296,16 C 310.66667,39.333333 320.33333,52 325,54 C 331.66667,58 338,58.333333 344,55 C 348.66667,52.333333 352.33333,49 355,45 C 357.66667,38.333333 357.66667,32 355,26 L 305,-49 L 259,-119 L 253,-122 C 247,-125.33333 240.66667,-125.66667 234,-123 C 230,-119.66667 212,-99 180,-61 L 137.5,-11.5 C 137.5,-11.5 134.33333,-8.6666667 128,-3 C 121.66667,2.6666667 121.33333,-21.666667 127,-76 C 127,-124.66667 126.33333,-150.33333 125,-153 C 122.33333,-158.33333 118.66667,-162.33333 114,-165 C 107.33333,-167.66667 101.33333,-167.66667 96,-165 C 90.666667,-162.33333 86.666667,-158.33333 84,-153 C 82.666667,-150.33333 82,-136.33333 82,-111 L 82,-73 L 66,-96 C 55.333333,-112 48.333333,-120.66667 45,-122 C 39,-125.33333 32.666667,-125.66667 26,-123 C 22,-119.66667 3.6666667,-99 -29,-61 L -78,-1 L -118,-60 C -144.66667,-100 -159.66667,-120.66667 -163,-122 C -169,-125.33333 -175.33333,-125.66667 -182,-123 C -186,-119.66667 -204.33333,-99 -237,-61 L -286,-1 L -296,-16 C -310.66667,-39.333333 -320.33333,-52 -325,-54 C -331.66667,-58 -338,-58.333333 -344,-55 C -348,-53 -353,-47.333333 -359,-38 C -395.66667,22.666667 -404.66667,88 -386,158 C -376.66667,186.66667 -366.66667,208.66667 -356,224 C -351.33333,230 -347.66667,233.66667 -345,235 z " />
    </g>
  </g>
</svg>

<?xml version="1.0" standalone="no"?>
<!DOCTYPE svg PUBLIC "-//W3C//DTD SVG 1.1//EN" "http://www.w3.org/Graphics/SVG/1.1/DTD/svg11.dtd" >
<svg viewBox="-396 -200 1000 1000">
  <g transform="matrix(1 0 0 -1 0 800)">
   <path fill="currentColor"
d="M-345 235q10 5 20 1q6 -4 10 -11q2 -4 2 -10q-1 -7 -11 -23q-46 -79 -17 -164q4 -12 6 -16l2 -4l37 56q38 56 43 58q9 5 19 1q6 -5 55 -62l49 -60l40 59q40 60 45 62q9 5 19 1q6 -5 55 -62l49 -60l2 3q2 2 2 74q0 71 2 75q4 8 12 12t17 0t11 -10q3 -6 3 -42l1 -38l15 22
q15 23 20 25q9 5 19 1q6 -5 55 -62l49 -60l10 15q22 35 29 38q10 6 19 1q7 -4 11 -10q4 -10 0 -19l-50 -75l-46 -70l-6 -3q-9 -5 -19 -1q-6 5 -54 62l-42.5 49.5t-9.5 8.5t-1 -73q0 -73 -2 -77q-4 -8 -11 -12q-10 -4 -18 0t-12 12q-2 4 -2 42v38l-16 -23q-16 -24 -21 -26
q-9 -5 -19 -1q-6 5 -55 62l-49 60l-40 -59q-40 -60 -45 -62q-9 -5 -19 -1q-6 5 -55 62l-49 60l-10 -15q-22 -35 -29 -38q-10 -6 -19 -1q-6 3 -15 17q-55 91 -27 196q14 43 30 66q7 9 11 11z" />
  </g>

</svg>
